X:1
T:L'air des trembleurs
T:L'air des trembleurs
T:Lully
C:Lully
%%score [ 1 2 3 4 ]
L:1/8
Q:1/4=110
M:4/4
K:C
V:1 treble nm="Soprano" snm="S."
V:2 treble nm="Alto" snm="A."
V:3 treble-8 nm="Tenor" snm="T."
V:4 bass nm="Bass" snm="B."
V:1
 GG | GGGG AABB | cccc c2 GG | AAFF DDGG | EEEE E2 GG | GGcc AA_B_B | AA A2 AA_B_B | _B_Bcc AAdd | %8
w: L'hi- *|ver * qui * nous * tour- *|men- * * * te s'obs- *|tine * à * nous * ge- *|ler * * * * Nous *|ne * sau- * rions * par- *|ler * * qu'a- * vec *|u- * ne * voix * trem- *|
 BBBB B2 z2 |: GG | GGAA FFGG | EEFF DDGG | FFEE D3 C | CCCC C2 z2 :| %14
w: blan- * * * te|La *|neige * et * les * gla- *|çons * nous * don- * nent *|de * mor- * tels fris-|sons * * * *|
V:2
 EE | EEEE FFDD | CCCC C2 CC | FFCC CCB,B, | CCCC C2 EE | EEEE ^FFGG | ^FF F2 FFGG | GGAA ^F3 G | %8
w: L'hi- *|ver * qui * nous * tour- *|men- * * * te s'obs- *|tine * à * nous * ge- *|ler * * * * Nous *|ne * sau- * rions * par- *|ler * * qu'a- * vec *|u- * ne * voix trem-|
 GGGG G2 z2 |: EE | EEFF DDEE | CCDD B,B,CC | B,B,CC B,3 C | CCCC C2 z2 :| %14
w: blan- * * * te|La *|neige * et * les * gla- *|çons * nous * don- * nent *|de * mor- * tels fris-|sons * * * *|
V:3
 cc | cccc ccff | eeee e2 cc | ccAA GGGG | GGGG G2 cc | cccc dddd | dd d2 dddd | _BBAA A3 G | %8
w: L'hi- *|ver * qui * nous * tour- *|men- * * * te s'obs- *|tine * à * nous * ge- *|ler * * * * Nous *|ne * sau- * rions * par- *|ler * * qu'a- * vec *|u- * ne * voix trem-|
 GGGG G2 z2 |: cc | cccc _BBBB | AAAA GGGG | GGGG GGGG | CCCC C2 z2 :| %14
w: blan- * * * te|La *|neige * et * les * gla- *|çons * nous * don- * nent *|de * mor- * tels * fris- *|sons * * * *|
V:4
 C,C, | C,C,C,C, F,F,G,G, | A,A,A,A, A,2 E,E, | F,F,F,F, G,G,G,G, | C,C,C,C, C,2 C,C, | %5
w: L'hi- *|ver * qui * nous * tour- *|men- * * * te s'obs- *|tine * à * nous * ge- *|ler * * * * Nous *|
 C,C,A,,A,, D,D,G,,G,, | D,D, D,2 D,D,_B,,B,, | _E,E,C,C, D,D,D,D, | G,G,G,G, G,2 z2 |: C,C, | %10
w: ne * sau- * rions * par- *|ler * * qu'a- * vec *|u- * ne * voix * trem- *|blan- * * * te|La *|
 CCA,A, _B,B,G,G, | A,A,F,F, G,G,E,E, | D,D,C,C, G,,G,,G,,G,, | C,C,C,C, C,2 z2 :| %14
w: neige * et * les * gla- *|çons * nous * don- * nent *|de * mor- * tels * fris- *|sons * * * *|

